;FLAVOR:Marlin
;TIME:1122
;Filament used: 1.04263m
;Layer height: 0.2
;MINX:90.061
;MINY:91.807
;MINZ:0.2
;MAXX:144.94
;MAXY:143.194
;MAXZ:10
;Generated with Cura_SteamEngine 4.1.0
M140 S55
M105
M190 S55
M104 S200
M105
M109 S200
M82 ;absolute extrusion mode
; Ender 3 Custom Start G-code
G28 ; Home all axes
G92 E0 ; Reset Extruder
G1 Z2.0 F3000 ; Move Z Axis up little to prevent scratching of Heat Bed
G1 X0.1 Y20 Z0.3 F5000.0 ; Move to start position
G1 X0.1 Y200.0 Z0.3 F1500.0 E15 ; Draw the first line
G1 X0.4 Y200.0 Z0.3 F5000.0 ; Move to side a little
G1 X0.4 Y20 Z0.3 F1500.0 E30 ; Draw the second line
G92 E0 ; Reset Extruder
G1 Z2.0 F3000 ; Move Z Axis up little to prevent scratching of Heat Bed
; End of custom start GCode
G92 E0
G92 E0
;LAYER_COUNT:50
;LAYER:0
M107
M204 S500
M205 X10 Y10
G0 F3600 X92 Y103.278 Z0.2
;TYPE:SKIRT
G1 F1800 X92.539 Y102.808 E0.02379
G1 X93.127 Y102.401 E0.04757
G1 X93.69 Y102.094 E0.0689
G1 X94.521 Y101.693 E0.09959
G1 X94.632 Y101.64 E0.10368
G1 X114.179 Y92.669 E0.81901
G1 X114.265 Y92.631 E0.82214
G1 X114.904 Y92.349 E0.84537
G1 X115.574 Y92.097 E0.86918
G1 X116.267 Y91.922 E0.89295
G1 X116.976 Y91.825 E0.91676
G1 X117.691 Y91.807 E0.94054
G1 X118.403 Y91.87 E0.96432
G1 X119.104 Y92.011 E0.9881
G1 X120.042 Y92.336 E1.02112
G1 X121 Y92.753 E1.05587
G1 X121.116 Y92.804 E1.06008
G1 X140.537 Y101.718 E1.77082
G1 X140.605 Y101.75 E1.77332
G1 X141.26 Y102.06 E1.79742
G1 X141.888 Y102.402 E1.8212
G1 X142.475 Y102.811 E1.845
G1 X143.012 Y103.284 E1.8688
G1 X143.493 Y103.813 E1.89258
G1 X143.911 Y104.393 E1.91636
G1 X144.263 Y105.016 E1.94016
G1 X144.543 Y105.674 E1.96394
G1 X144.747 Y106.36 E1.98775
G1 X144.874 Y107.064 E2.01154
G1 X144.921 Y107.722 E2.03348
G1 X144.938 Y108.609 E2.06299
G1 X144.939 Y108.732 E2.06708
G1 X144.94 Y126.419 E2.65535
G1 X144.939 Y126.508 E2.65831
G1 X144.929 Y127.23 E2.68233
G1 X144.88 Y127.943 E2.7061
G1 X144.75 Y128.647 E2.72991
G1 X144.544 Y129.331 E2.75367
G1 X144.262 Y129.989 E2.77748
G1 X143.908 Y130.61 E2.80126
G1 X143.487 Y131.189 E2.82507
G1 X143.005 Y131.717 E2.84884
G1 X142.466 Y132.188 E2.87265
G1 X141.878 Y132.595 E2.89644
G1 X141.314 Y132.904 E2.91783
G1 X140.426 Y133.333 E2.95063
G1 X140.311 Y133.387 E2.95485
G1 X120.831 Y142.326 E3.66772
G1 X120.751 Y142.362 E3.67064
G1 X120.1 Y142.65 E3.69431
G1 X119.431 Y142.902 E3.71809
G1 X118.738 Y143.078 E3.74187
G1 X118.029 Y143.176 E3.76568
G1 X117.314 Y143.194 E3.78947
G1 X116.602 Y143.132 E3.81324
G1 X115.9 Y142.991 E3.83705
G1 X114.954 Y142.664 E3.87034
G1 X114.036 Y142.264 E3.90365
G1 X113.923 Y142.214 E3.90776
G1 X94.463 Y133.282 E4.61992
G1 X94.395 Y133.25 E4.62242
G1 X93.74 Y132.94 E4.64652
G1 X93.112 Y132.598 E4.67031
G1 X92.525 Y132.189 E4.6941
G1 X91.988 Y131.716 E4.7179
G1 X91.507 Y131.187 E4.74169
G1 X91.089 Y130.607 E4.76546
G1 X90.737 Y129.984 E4.78926
G1 X90.457 Y129.326 E4.81305
G1 X90.253 Y128.64 E4.83685
G1 X90.126 Y127.936 E4.86064
G1 X90.079 Y127.274 E4.88272
G1 X90.062 Y126.359 E4.91316
G1 X90.061 Y126.24 E4.91711
G1 X90.061 Y108.539 E5.50585
G1 X90.062 Y108.445 E5.50898
G1 X90.072 Y107.764 E5.53163
G1 X90.122 Y107.051 E5.5554
G1 X90.252 Y106.347 E5.57922
G1 X90.459 Y105.663 E5.60298
G1 X90.742 Y105.006 E5.62678
G1 X91.096 Y104.384 E5.65058
G1 X91.517 Y103.806 E5.67436
G1 X92 Y103.278 E5.69816
G0 F3600 X92.391 Y103.459
G1 F1800 X92.925 Y103.018 E5.7212
G1 X93.507 Y102.641 E5.74426
G1 X93.863 Y102.454 E5.75764
G1 X94.694 Y102.053 E5.78833
G1 X94.799 Y102.004 E5.79218
G1 X114.346 Y93.033 E6.50752
G1 X114.427 Y92.997 E6.51046
G1 X115.066 Y92.715 E6.5337
G1 X115.714 Y92.472 E6.55671
G1 X116.386 Y92.306 E6.57974
G1 X117.073 Y92.218 E6.60277
G1 X117.766 Y92.21 E6.62582
G1 X118.455 Y92.282 E6.64886
G1 X119.131 Y92.433 E6.6719
G1 X119.883 Y92.703 E6.69848
G1 X120.841 Y93.12 E6.73323
G1 X120.949 Y93.168 E6.73716
G1 X140.37 Y102.082 E7.4479
G1 X140.434 Y102.112 E7.45025
G1 X141.089 Y102.422 E7.47435
G1 X141.697 Y102.754 E7.49739
G1 X142.262 Y103.153 E7.52039
G1 X142.778 Y103.616 E7.54345
G1 X143.237 Y104.134 E7.56647
G1 X143.633 Y104.702 E7.5895
G1 X143.961 Y105.312 E7.61254
G1 X144.217 Y105.956 E7.63559
G1 X144.397 Y106.624 E7.6586
G1 X144.498 Y107.309 E7.68163
G1 X144.521 Y107.73 E7.69565
G1 X144.538 Y108.617 E7.72516
G1 X144.539 Y108.732 E7.72898
G1 X144.54 Y126.419 E8.31725
G1 X144.539 Y126.502 E8.32002
G1 X144.529 Y127.224 E8.34403
G1 X144.48 Y127.915 E8.36707
G1 X144.351 Y128.595 E8.39009
G1 X144.145 Y129.256 E8.41312
G1 X143.864 Y129.889 E8.43616
G1 X143.511 Y130.486 E8.45922
G1 X143.093 Y131.037 E8.48223
G1 X142.613 Y131.537 E8.50528
G1 X142.08 Y131.978 E8.52829
G1 X141.499 Y132.355 E8.55132
G1 X141.14 Y132.544 E8.56482
G1 X140.252 Y132.973 E8.59762
G1 X140.144 Y133.023 E8.60158
G1 X120.664 Y141.962 E9.31444
G1 X120.589 Y141.996 E9.31718
G1 X119.938 Y142.284 E9.34086
G1 X119.29 Y142.527 E9.36388
G1 X118.618 Y142.694 E9.38691
G1 X117.931 Y142.782 E9.40994
G1 X117.239 Y142.791 E9.43296
G1 X116.55 Y142.719 E9.456
G1 X115.874 Y142.569 E9.47903
G1 X115.114 Y142.298 E9.50587
G1 X114.196 Y141.898 E9.53918
G1 X114.09 Y141.85 E9.54305
G1 X94.63 Y132.918 E10.25521
G1 X94.566 Y132.888 E10.25756
G1 X93.911 Y132.578 E10.28166
G1 X93.303 Y132.246 E10.3047
G1 X92.738 Y131.847 E10.32771
G1 X92.222 Y131.384 E10.35077
G1 X91.763 Y130.866 E10.37379
G1 X91.367 Y130.298 E10.39682
G1 X91.039 Y129.688 E10.41985
G1 X90.783 Y129.044 E10.4429
G1 X90.603 Y128.376 E10.46591
G1 X90.502 Y127.691 E10.48894
G1 X90.479 Y127.266 E10.5031
G1 X90.462 Y126.351 E10.53354
G1 X90.461 Y126.24 E10.53723
G1 X90.461 Y108.539 E11.12597
G1 X90.462 Y108.451 E11.12889
G1 X90.472 Y107.77 E11.15155
G1 X90.522 Y107.079 E11.17459
G1 X90.651 Y106.399 E11.19761
G1 X90.858 Y105.738 E11.22065
G1 X91.14 Y105.105 E11.2437
G1 X91.492 Y104.509 E11.26672
G1 X91.911 Y103.958 E11.28974
G1 X92.391 Y103.459 E11.31277
G0 F3600 X92.781 Y103.645
G1 F1800 X93.31 Y103.235 E11.33503
G1 X94.037 Y102.815 E11.36296
G1 X94.868 Y102.414 E11.39365
G1 X94.966 Y102.367 E11.39726
G1 X114.513 Y93.396 E12.1126
G1 X114.588 Y93.363 E12.11532
G1 X115.227 Y93.081 E12.13855
G1 X115.854 Y92.848 E12.1608
G1 X116.505 Y92.691 E12.18307
G1 X117.169 Y92.613 E12.20531
G1 X117.838 Y92.615 E12.22756
G1 X118.502 Y92.697 E12.24981
G1 X119.152 Y92.857 E12.27208
G1 X119.723 Y93.069 E12.29234
G1 X120.681 Y93.486 E12.32709
G1 X120.782 Y93.531 E12.33076
G1 X140.203 Y102.445 E13.0415
G1 X140.263 Y102.473 E13.0437
G1 X140.918 Y102.783 E13.0678
G1 X141.504 Y103.105 E13.09004
G1 X142.048 Y103.495 E13.11231
G1 X142.542 Y103.946 E13.13455
G1 X142.978 Y104.453 E13.1568
G1 X143.351 Y105.009 E13.17906
G1 X143.655 Y105.605 E13.20132
G1 X143.885 Y106.233 E13.22356
G1 X144.039 Y106.884 E13.24581
G1 X144.121 Y107.738 E13.27435
G1 X144.138 Y108.625 E13.30385
G1 X144.139 Y108.732 E13.30741
G1 X144.14 Y126.419 E13.89568
G1 X144.139 Y126.497 E13.89828
G1 X144.129 Y127.219 E13.92229
G1 X144.08 Y127.886 E13.94454
G1 X143.952 Y128.542 E13.96677
G1 X143.746 Y129.179 E13.98904
G1 X143.466 Y129.786 E14.01127
G1 X143.115 Y130.356 E14.03353
G1 X142.699 Y130.88 E14.05579
G1 X142.223 Y131.351 E14.07806
G1 X141.695 Y131.761 E14.10029
G1 X140.966 Y132.183 E14.12831
G1 X140.078 Y132.612 E14.16111
G1 X139.978 Y132.66 E14.1648
G1 X120.498 Y141.599 E14.87767
G1 X120.428 Y141.63 E14.88021
G1 X119.777 Y141.918 E14.90389
G1 X119.15 Y142.152 E14.92615
G1 X118.499 Y142.309 E14.94842
G1 X117.835 Y142.388 E14.97066
G1 X117.166 Y142.386 E14.99291
G1 X116.502 Y142.305 E15.01516
G1 X115.852 Y142.146 E15.03742
G1 X115.274 Y141.931 E15.05793
G1 X114.356 Y141.531 E15.09123
G1 X114.257 Y141.486 E15.09485
G1 X94.797 Y132.554 E15.80702
G1 X94.737 Y132.527 E15.8092
G1 X94.082 Y132.217 E15.83331
G1 X93.496 Y131.895 E15.85555
G1 X92.952 Y131.505 E15.87781
G1 X92.458 Y131.054 E15.90006
G1 X92.022 Y130.547 E15.9223
G1 X91.649 Y129.991 E15.94457
G1 X91.345 Y129.395 E15.96682
G1 X91.115 Y128.767 E15.98906
G1 X90.961 Y128.116 E16.01131
G1 X90.879 Y127.259 E16.03995
G1 X90.862 Y126.344 E16.07038
G1 X90.861 Y126.24 E16.07384
G1 X90.861 Y108.539 E16.66258
G1 X90.862 Y108.457 E16.66531
G1 X90.872 Y107.776 E16.68796
G1 X90.921 Y107.109 E16.71021
G1 X91.05 Y106.452 E16.73247
G1 X91.257 Y105.816 E16.75472
G1 X91.537 Y105.208 E16.77698
G1 X91.889 Y104.639 E16.79924
G1 X92.305 Y104.115 E16.82149
G1 X92.781 Y103.645 E16.84374
G0 F3600 X92.698 Y104.279
G1 F1800 X93.17 Y103.84 E16.86518
G1 X93.693 Y103.462 E16.88664
G1 X94.211 Y103.175 E16.90634
G1 X95.042 Y102.774 E16.93703
G1 X95.133 Y102.731 E16.94037
G1 X114.68 Y93.76 E17.65571
G1 X114.75 Y93.729 E17.65826
G1 X115.389 Y93.447 E17.68149
G1 X115.993 Y93.223 E17.70291
G1 X116.621 Y93.077 E17.72436
G1 X117.262 Y93.009 E17.7458
G1 X117.907 Y93.021 E17.76725
G1 X118.545 Y93.113 E17.78869
G1 X119.167 Y93.282 E17.81013
G1 X119.563 Y93.436 E17.82426
G1 X120.521 Y93.853 E17.85901
G1 X120.615 Y93.895 E17.86244
G1 X140.036 Y102.809 E18.57317
G1 X140.092 Y102.835 E18.57523
G1 X140.747 Y103.145 E18.59933
G1 X141.311 Y103.456 E18.62075
G1 X141.833 Y103.835 E18.64221
G1 X142.303 Y104.275 E18.66362
G1 X142.716 Y104.771 E18.68509
G1 X143.064 Y105.313 E18.70651
G1 X143.342 Y105.895 E18.72796
G1 X143.547 Y106.506 E18.7494
G1 X143.674 Y107.138 E18.77084
G1 X143.721 Y107.745 E18.79109
G1 X143.738 Y108.632 E18.8206
G1 X143.739 Y108.732 E18.82392
G1 X143.74 Y126.419 E19.41219
G1 X143.74 Y126.491 E19.41459
G1 X143.73 Y127.213 E19.4386
G1 X143.681 Y127.856 E19.46005
G1 X143.553 Y128.488 E19.4815
G1 X143.347 Y129.099 E19.50295
G1 X143.068 Y129.68 E19.52438
G1 X142.719 Y130.222 E19.54582
G1 X142.306 Y130.717 E19.56727
G1 X141.834 Y131.156 E19.5887
G1 X141.312 Y131.534 E19.61014
G1 X140.792 Y131.823 E19.62993
G1 X139.904 Y132.252 E19.66273
G1 X139.811 Y132.296 E19.66615
G1 X120.331 Y141.235 E20.37902
G1 X120.266 Y141.264 E20.38138
G1 X119.615 Y141.552 E20.40506
G1 X119.01 Y141.776 E20.42652
G1 X118.383 Y141.923 E20.44794
G1 X117.742 Y141.992 E20.46938
G1 X117.097 Y141.98 E20.49084
G1 X116.459 Y141.889 E20.51227
G1 X115.837 Y141.72 E20.53371
G1 X115.434 Y141.564 E20.54808
G1 X114.516 Y141.164 E20.58139
G1 X114.424 Y141.123 E20.58474
G1 X94.964 Y132.191 E21.2969
G1 X94.908 Y132.165 E21.29896
G1 X94.253 Y131.855 E21.32306
G1 X93.689 Y131.544 E21.34448
G1 X93.167 Y131.165 E21.36594
G1 X92.697 Y130.725 E21.38735
G1 X92.284 Y130.229 E21.40882
G1 X91.936 Y129.687 E21.43024
G1 X91.658 Y129.105 E21.45169
G1 X91.453 Y128.494 E21.47313
G1 X91.326 Y127.862 E21.49457
G1 X91.279 Y127.252 E21.51492
G1 X91.262 Y126.337 E21.54535
G1 X91.261 Y126.24 E21.54858
G1 X91.261 Y108.539 E22.13732
G1 X91.262 Y108.463 E22.13985
G1 X91.272 Y107.782 E22.1625
G1 X91.321 Y107.139 E22.18395
G1 X91.45 Y106.507 E22.2054
G1 X91.655 Y105.896 E22.22684
G1 X91.935 Y105.315 E22.24829
G1 X92.284 Y104.774 E22.2697
G1 X92.698 Y104.279 E22.29116
;MESH:Cool Kieran-Krunk (1).stl
G0 F3600 X96.489 Y107.137
G0 X98.173 Y108.406
G0 X104.77 Y113.38
G0 X105.796 Y114.152
G0 X118.055 Y123.491
G0 X118.002 Y123.575
;TYPE:WALL-INNER
G1 F1800 X117.244 Y123.575 E22.31637
G1 X116.664 Y124.796 E22.36133
G1 X115.535 Y125.996 E22.41613
G1 X113.785 Y127.1 E22.48495
G1 X111.657 Y127.561 E22.55737
G1 X108.638 Y127.164 E22.65865
G1 X106.586 Y126.127 E22.73512
G1 X105.276 Y124.68 E22.80004
G1 X104.534 Y123.015 E22.86067
G1 X104.153 Y119.763 E22.96957
G1 X104.294 Y118.264 E23.01965
G1 X104.556 Y116.516 E23.07844
G1 X105.272 Y114.815 E23.13982
G1 X108.097 Y111.066 E23.29595
G1 X112.427 Y107.037 E23.49267
G1 X117.624 Y102.939 E23.71279
G1 X122.705 Y106.939 E23.92787
G1 X127.076 Y110.987 E24.12602
G1 X129.964 Y114.794 E24.28495
G1 X130.69 Y116.517 E24.34714
G1 X130.951 Y118.254 E24.40556
G1 X131.095 Y119.715 E24.45439
G1 X130.712 Y123.014 E24.56485
G1 X129.977 Y124.661 E24.62484
G1 X128.67 Y126.113 E24.68982
G1 X126.603 Y127.165 E24.76696
G1 X123.648 Y127.562 E24.86612
G1 X121.459 Y127.098 E24.94055
G1 X119.722 Y126.008 E25.00875
G1 X118.582 Y124.796 E25.06409
G1 X118.002 Y123.575 E25.10905
G0 F3600 X117.749 Y123.975
;TYPE:WALL-OUTER
G1 F1800 X117.497 Y123.975 E25.11744
G1 X117.431 Y124.115 E25.12258
G1 X116.998 Y125.024 E25.15607
G1 X115.792 Y126.306 E25.21461
G1 X113.937 Y127.476 E25.28756
G1 X111.673 Y127.967 E25.36461
G1 X108.52 Y127.552 E25.47038
G1 X106.339 Y126.45 E25.55166
G1 X104.937 Y124.902 E25.62112
G1 X104.144 Y123.122 E25.68593
G1 X103.751 Y119.768 E25.79825
G1 X103.898 Y118.205 E25.85047
G1 X104.167 Y116.408 E25.9109
G1 X104.922 Y114.615 E25.97561
G1 X107.799 Y110.797 E26.13461
G1 X112.17 Y106.73 E26.33319
G1 X117.623 Y102.43 E26.56416
G1 X122.967 Y106.637 E26.79037
G1 X127.376 Y110.72 E26.99024
G1 X130.313 Y114.592 E27.15188
G1 X131.079 Y116.408 E27.21743
G1 X131.347 Y118.195 E27.27753
G1 X131.497 Y119.717 E27.3284
G1 X131.102 Y123.121 E27.44238
G1 X130.316 Y124.882 E27.50652
G1 X128.918 Y126.435 E27.57602
G1 X126.725 Y127.552 E27.65787
G1 X123.632 Y127.967 E27.76167
G1 X121.305 Y127.474 E27.84078
G1 X119.468 Y126.321 E27.91292
G1 X118.248 Y125.024 E27.97214
G1 X117.815 Y124.115 E28.00563
G1 X117.749 Y123.975 E28.01078
G0 F3600 X117.549 Y123.975
G0 X116.998 Y123.185
;TYPE:SKIN
G1 F1800 X116.335 Y124.576 E28.06203
G1 X115.286 Y125.692 E28.11297
G1 X113.634 Y126.734 E28.17794
G1 X111.639 Y127.166 E28.24583
G1 X108.759 Y126.788 E28.34244
G1 X106.825 Y125.81 E28.41452
G1 X105.607 Y124.465 E28.47487
G1 X104.915 Y122.911 E28.53145
G1 X104.545 Y119.755 E28.63714
G1 X104.68 Y118.322 E28.68501
G1 X104.935 Y116.62 E28.74225
G1 X105.613 Y115.01 E28.80036
G1 X108.391 Y111.324 E28.95387
G1 X112.669 Y107.343 E29.14824
G1 X117.624 Y103.436 E29.35811
G1 X122.455 Y107.239 E29.5626
G1 X126.787 Y111.251 E29.75898
G1 X129.623 Y114.989 E29.91504
G1 X130.311 Y116.622 E29.97398
G1 X130.564 Y118.303 E30.03052
G1 X130.703 Y119.709 E30.07751
G1 X130.331 Y122.909 E30.18466
G1 X129.645 Y124.448 E30.2407
G1 X128.427 Y125.799 E30.3012
G1 X126.485 Y126.788 E30.37369
G1 X123.665 Y127.167 E30.46832
G1 X121.605 Y126.73 E30.53837
G1 X119.972 Y125.705 E30.60249
G1 X118.911 Y124.576 E30.65402
G1 X118.248 Y123.185 E30.70527
G1 X116.998 Y123.185 E30.74685
G0 F3600 X107.058 Y125.725
G1 F1800 X106.347 Y125.015 E30.78027
G1 X106.277 Y124.945
G0 F3600 X105.353 Y123.455
G1 F1800 X108.202 Y126.304 E30.91428
G1 X108.272 Y126.374
G0 F3600 X109.115 Y126.652
G1 F1800 X105.058 Y122.594 E31.10513
G0 F3600 X104.983 Y121.953
G1 F1800 X109.767 Y126.737 E31.33015
G0 F3600 X110.418 Y126.823
G1 F1800 X104.908 Y121.313 E31.58933
G0 F3600 X104.833 Y120.672
G1 F1800 X111.069 Y126.908 E31.88265
G0 F3600 X111.695 Y126.968
G1 F1800 X104.758 Y120.032 E32.20892
G0 F3600 X104.752 Y119.46
G1 F1800 X112.16 Y126.868 E32.55737
G0 F3600 X112.625 Y126.767
G1 F1800 X104.801 Y118.943 E32.92539
G0 F3600 X104.849 Y118.426
G1 F1800 X113.09 Y126.666 E33.313
G0 F3600 X113.555 Y126.566
G1 F1800 X104.919 Y117.93 E33.71921
G0 F3600 X104.994 Y117.439
G1 F1800 X113.904 Y126.349 E34.13831
G0 F3600 X114.251 Y126.13
G1 F1800 X105.068 Y116.947 E34.57025
G0 F3600 X105.182 Y116.495
G1 F1800 X114.597 Y125.911 E35.01312
G0 F3600 X114.945 Y125.693
G1 F1800 X105.349 Y116.097 E35.46449
G0 F3600 X105.518 Y115.7
G1 F1800 X115.266 Y125.449 E35.92303
G0 F3600 X115.541 Y125.157
G1 F1800 X105.685 Y115.302 E36.3866
G0 F3600 X105.889 Y114.94
G1 F1800 X115.814 Y124.865 E36.85344
G0 F3600 X116.089 Y124.574
G1 F1800 X106.133 Y114.618 E37.32174
G0 F3600 X106.376 Y114.296
G1 F1800 X116.303 Y124.223 E37.78868
G0 F3600 X116.486 Y123.84
G1 F1800 X106.618 Y113.972 E38.25284
G0 F3600 X106.862 Y113.65
G1 F1800 X116.669 Y123.457 E38.71413
G0 F3600 X116.851 Y123.074
G1 F1800 X107.105 Y113.328 E39.17255
G0 F3600 X107.348 Y113.005
G1 F1800 X117.347 Y123.004 E39.64287
G0 F3600 X117.912 Y123.004
G1 F1800 X107.591 Y112.683 E40.12834
G0 F3600 X107.834 Y112.359
G1 F1800 X122.131 Y126.656 E40.80083
G0 F3600 X122.849 Y126.808
G1 F1800 X108.077 Y112.037 E41.49563
G0 F3600 X108.32 Y111.715
G1 F1800 X123.566 Y126.961 E42.21276
G0 F3600 X124.097 Y126.926
G1 F1800 X108.572 Y111.401 E42.94301
G0 F3600 X108.865 Y111.128
G1 F1800 X124.596 Y126.859 E43.68295
G0 F3600 X125.095 Y126.792
G1 F1800 X109.158 Y110.855 E44.43257
G0 F3600 X109.451 Y110.583
G1 F1800 X125.594 Y126.725 E45.19187
